remix/Device/device-line.svg

<svg viewBox="0 0 24 24" fill="currentColor" xmlns="http://www.w3.org/2000/svg"><path d="M19 8H21C21.5523 8 22 8.44772 22 9V21C22 21.5523 21.5523 22 21 22H13C12.4477 22 12 21.5523 12 21V20H4C3.44772 20 3 19.5523 3 19V3C3 2.44772 3.44772 2 4 2H18C18.5523 2 19 2.44772 19 3V8ZM17 8V4H5V18H12V9C12 8.44772 12.4477 8 13 8H17ZM14 10V20H20V10H14Z"/></svg>

<svg viewBox="0 0 24 24" xmlns="http://www.w3.org/2000/svg"><path fill="none" d="M0 0h24v24H0Z"/><path d="M19 8h2v0c.55 0 1 .44 1 1v12 0c0 .55-.45 1-1 1h-8v0c-.56 0-1-.45-1-1v-1H4v0c-.56 0-1-.45-1-1V3v0c0-.56.44-1 1-1h14v0c.55 0 1 .44 1 1v5Zm-2 0V4H5v14h7V9v0c0-.56.44-1 1-1h4Zm-3 2v10h6V10h-6Z"/></svg>
